**harm	**harte	**timestamp	**phrase	**leadinstrument	**kern
*M4/4	*M4/4	*	*	*	*
*g:	*g:	*	*	*	*g:
1r;	N	0	.	r	1r;
=1	=1	=1	=1	=1	=1
*>A_intro	*>A_intro	*>A_intro	*>A_intro	*>A_intro	*>A_intro
1i	G:5	0.627	newline	guitar	1G 1b- 1dd
=2	=2	=2	=2	=2	=2
1i	G:5	2.307	.	guitar	1G 1b- 1dd
=3	=3	=3	=3	=3	=3
1i	G:5	3.986	.	guitar	1G 1b- 1dd
=4	=4	=4	=4	=4	=4
1i	G:5	5.666	.	guitar	1G 1b- 1dd
=5	=5	=5	=5	=5	=5
*>B_verse	*>B_verse	*>B_verse	*>B_verse	*>B_verse	*>B_verse
1i	G:min	7.346	newline	voice	1G 1b- 1dd
=6	=6	=6	=6	=6	=6
1i	G:min	9.004	.	voice	1G 1b- 1dd
=7	=7	=7	=7	=7	=7
1i	G:min	10.662	.	voice	1G 1b- 1dd
=8	=8	=8	=8	=8	=8
1i	G:min	12.319	.	voice	1G 1b- 1dd
=9	=9	=9	=9	=9	=9
1-VII7	F:7	13.977	newline	voice	1F 1a 1cc 1ee-
=10	=10	=10	=10	=10	=10
1-VII7	F:7	15.645	.	voice	1F 1a 1cc 1ee-
=11	=11	=11	=11	=11	=11
1i	G:min	17.313	.	voice	1G 1b- 1dd
=12	=12	=12	=12	=12	=12
1i	G:min	18.98	.	voice	1G 1b- 1dd
=13	=13	=13	=13	=13	=13
1-III	B-:maj	20.648	newline	voice	1B-- 1dd- 1ff-
=14	=14	=14	=14	=14	=14
2II	A:maj	22.333	.	voice	2A 2cc# 2ee
2-II	A-:maj	23.175	.	voice	2A- 2cc 2ee-
=15	=15	=15	=15	=15	=15
1i	G:min	24.018	.	voice	1G 1b- 1dd
=16	=16	=16	=16	=16	=16
1i	G:min	25.703	.	voice	1G 1b- 1dd
=17	=17	=17	=17	=17	=17
*>B_verse	*>B_verse	*>B_verse	*>B_verse	*>B_verse	*>B_verse
1i	G:min6	27.388	newline	voice	1G 1b- 1dd
=18	=18	=18	=18	=18	=18
1i	G:min6	29.063	.	voice	1G 1b- 1dd
=19	=19	=19	=19	=19	=19
1i	G:min6	30.739	.	voice	1G 1b- 1dd
=20	=20	=20	=20	=20	=20
1i	G:min6	32.414	.	voice	1G 1b- 1dd
=21	=21	=21	=21	=21	=21
1-VII7	F:7	34.09	newline	voice	1F 1a 1cc 1ee-
=22	=22	=22	=22	=22	=22
1-VII7	F:7	35.773	.	voice	1F 1a 1cc 1ee-
=23	=23	=23	=23	=23	=23
1i	G:min6	37.457	.	voice	1G 1b- 1dd
=24	=24	=24	=24	=24	=24
1i	G:min6	39.14	.	voice	1G 1b- 1dd
=25	=25	=25	=25	=25	=25
1-III	B-:maj	40.824	newline	voice	1B-- 1dd- 1ff-
=26	=26	=26	=26	=26	=26
2II	A:maj	42.499	.	voice	2A 2cc# 2ee
2-II	A-:maj	43.337	.	voice	2A- 2cc 2ee-
=27	=27	=27	=27	=27	=27
1i	G:min	44.174	.	voice	1G 1b- 1dd
=28	=28	=28	=28	=28	=28
1i	G:min	45.849	.	voice	1G 1b- 1dd
=29	=29	=29	=29	=29	=29
*>B_verse	*>B_verse	*>B_verse	*>B_verse	*>B_verse	*>B_verse
1IM7	G:maj6(7)	47.524	newline	voice	1G 1b 1dd 1ff#
=30	=30	=30	=30	=30	=30
1IM7	G:maj6(7)	49.192	.	voice	1G 1b 1dd 1ff#
=31	=31	=31	=31	=31	=31
1IM7	G:maj6(7)	50.86	.	voice	1G 1b 1dd 1ff#
=32	=32	=32	=32	=32	=32
1i	G:minmaj7	52.528	.	voice	1G 1b- 1dd
=33	=33	=33	=33	=33	=33
1-VII7	F:7	54.196	newline	voice	1F 1a 1cc 1ee-
=34	=34	=34	=34	=34	=34
1-VII7	F:7	55.869	.	voice	1F 1a 1cc 1ee-
=35	=35	=35	=35	=35	=35
1i	G:min	57.542	.	voice	1G 1b- 1dd
=36	=36	=36	=36	=36	=36
1i	G:min	59.215	.	voice	1G 1b- 1dd
=37	=37	=37	=37	=37	=37
1-III	B-:maj	60.888	newline	voice	1B-- 1dd- 1ff-
=38	=38	=38	=38	=38	=38
2II	A:maj	62.576	.	voice	2A 2cc# 2ee
2-II	A-:maj	63.42	.	voice	2A- 2cc 2ee-
=39	=39	=39	=39	=39	=39
1i	G:min	64.264	.	voice	1G 1b- 1dd
=40	=40	=40	=40	=40	=40
1i	G:min	65.952	.	voice	1G 1b- 1dd
=41	=41	=41	=41	=41	=41
*>B_verse	*>B_verse	*>B_verse	*>B_verse	*>B_verse	*>B_verse
1i	G:min	67.64	newline	voice	1G 1b- 1dd
=42	=42	=42	=42	=42	=42
1i	G:min	69.309	.	voice	1G 1b- 1dd
=43	=43	=43	=43	=43	=43
1i	G:min	70.978	.	voice	1G 1b- 1dd
=44	=44	=44	=44	=44	=44
1i	G:min	72.648	.	voice	1G 1b- 1dd
=45	=45	=45	=45	=45	=45
1-VII7	F:7	74.317	newline	voice	1F 1a 1cc 1ee-
=46	=46	=46	=46	=46	=46
1-VII7	F:7	75.978	.	voice	1F 1a 1cc 1ee-
=47	=47	=47	=47	=47	=47
1i	G:min	77.639	.	voice	1G 1b- 1dd
=48	=48	=48	=48	=48	=48
1i	G:min	79.3	.	voice	1G 1b- 1dd
=49	=49	=49	=49	=49	=49
1-III	B-:maj	80.961	newline	voice	1B-- 1dd- 1ff-
=50	=50	=50	=50	=50	=50
2II	A:maj	82.632	.	voice	2A 2cc# 2ee
2-II	A-:maj	83.468	.	voice	2A- 2cc 2ee-
=51	=51	=51	=51	=51	=51
1i	G:min	84.304	.	voice	1G 1b- 1dd
=52	=52	=52	=52	=52	=52
1i	G:min	85.975	.	voice	1G 1b- 1dd
=53	=53	=53	=53	=53	=53
*>C_solo	*>C_solo	*>C_solo	*>C_solo	*>C_solo	*>C_solo
1i	G:min	87.647	newline	organ	1G 1b- 1dd
=54	=54	=54	=54	=54	=54
1i	G:min	89.322	.	organ	1G 1b- 1dd
=55	=55	=55	=55	=55	=55
1i	G:min	90.998	.	organ	1G 1b- 1dd
=56	=56	=56	=56	=56	=56
1i	G:min	92.674	.	organ	1G 1b- 1dd
=57	=57	=57	=57	=57	=57
1-VII7	F:7	94.35	newline	organ	1F 1a 1cc 1ee-
=58	=58	=58	=58	=58	=58
1-VII7	F:7	96.033	.	organ	1F 1a 1cc 1ee-
=59	=59	=59	=59	=59	=59
1i	G:min	97.717	.	organ	1G 1b- 1dd
=60	=60	=60	=60	=60	=60
1i	G:min	99.4	.	organ	1G 1b- 1dd
=61	=61	=61	=61	=61	=61
1-III	B-:maj	101.084	newline	organ	1B-- 1dd- 1ff-
=62	=62	=62	=62	=62	=62
2II	A:maj	102.773	.	organ	2A 2cc# 2ee
2-II	A-:maj	103.618	.	organ	2A- 2cc 2ee-
=63	=63	=63	=63	=63	=63
1i	G:min	104.462	.	organ	1G 1b- 1dd
=64	=64	=64	=64	=64	=64
1i	G:min	106.152	.	organ	1G 1b- 1dd
=65	=65	=65	=65	=65	=65
*>B_verse	*>B_verse	*>B_verse	*>B_verse	*>B_verse	*>B_verse
1i	G:min6	107.841	newline	voice	1G 1b- 1dd
=66	=66	=66	=66	=66	=66
1i	G:min6	109.532	.	voice	1G 1b- 1dd
=67	=67	=67	=67	=67	=67
1i	G:min6	111.222	.	voice	1G 1b- 1dd
=68	=68	=68	=68	=68	=68
1i	G:min6	112.913	.	voice	1G 1b- 1dd
=69	=69	=69	=69	=69	=69
1-VII7	F:7	114.603	newline	voice	1F 1a 1cc 1ee-
=70	=70	=70	=70	=70	=70
1-VII7	F:7	116.282	.	voice	1F 1a 1cc 1ee-
=71	=71	=71	=71	=71	=71
1i	G:min6	117.962	.	voice	1G 1b- 1dd
=72	=72	=72	=72	=72	=72
1i	G:min6	119.641	.	voice	1G 1b- 1dd
=73	=73	=73	=73	=73	=73
1-III	B-:maj	121.32	newline	voice	1B-- 1dd- 1ff-
=74	=74	=74	=74	=74	=74
2II	A:maj	123.005	.	voice	2A 2cc# 2ee
2-II	A-:maj	123.848	.	voice	2A- 2cc 2ee-
=75	=75	=75	=75	=75	=75
1i	G:min	124.69	.	voice	1G 1b- 1dd
=76	=76	=76	=76	=76	=76
1i	G:min	126.375	.	voice	1G 1b- 1dd
=77	=77	=77	=77	=77	=77
*>B_verse	*>B_verse	*>B_verse	*>B_verse	*>B_verse	*>B_verse
1i	G:min	128.06	newline	voice	1G 1b- 1dd
=78	=78	=78	=78	=78	=78
1i	G:min	129.759	.	voice	1G 1b- 1dd
=79	=79	=79	=79	=79	=79
1i	G:min	131.459	.	voice	1G 1b- 1dd
=80	=80	=80	=80	=80	=80
1i	G:min	133.158	.	voice	1G 1b- 1dd
=81	=81	=81	=81	=81	=81
1-VII7	F:7	134.857	newline	voice	1F 1a 1cc 1ee-
=82	=82	=82	=82	=82	=82
1-VII7	F:7	136.525	.	voice	1F 1a 1cc 1ee-
=83	=83	=83	=83	=83	=83
1i	G:min	138.193	.	voice	1G 1b- 1dd
=84	=84	=84	=84	=84	=84
1i	G:min	139.861	.	voice	1G 1b- 1dd
=85	=85	=85	=85	=85	=85
1-III	B-:maj	141.529	newline	voice	1B-- 1dd- 1ff-
=86	=86	=86	=86	=86	=86
2II	A:maj	143.2	.	voice	2A 2cc# 2ee
2-II	A-:maj	144.035	.	voice	2A- 2cc 2ee-
=87	=87	=87	=87	=87	=87
1i	G:min	144.87	.	voice	1G 1b- 1dd
=88	=88	=88	=88	=88	=88
1i	G:min	146.54	.	voice	1G 1b- 1dd
=89	=89	=89	=89	=89	=89
*>D_outro	*>D_outro	*>D_outro	*>D_outro	*>D_outro	*>D_outro
1i	G:min	148.211	newline	fadeout	1G 1b- 1dd
=90	=90	=90	=90	=90	=90
1i	G:min	149.872	.	fadeout	1G 1b- 1dd
=91	=91	=91	=91	=91	=91
1i	G:min	151.533	.	fadeout	1G 1b- 1dd
=92	=92	=92	=92	=92	=92
1i	G:min	153.195	.	fadeout	1G 1b- 1dd
=93	=93	=93	=93	=93	=93
1i	G:min	154.856	newline	voice	1G 1b- 1dd
=94	=94	=94	=94	=94	=94
1i	G:min	156.361	.	voice	1G 1b- 1dd
=95	=95	=95	=95	=95	=95
1i	G:min	157.865	.	voice	1G 1b- 1dd
=96	=96	=96	=96	=96	=96
1i	G:min	159.37	.	voice	1G 1b- 1dd
1r;	N	160.874	.	r	1r;
1r;	N	164.31	.	r	1r;
*-	*-	*-	*-	*-	*-
!!!OTL: Comin' Home Baby
!!!COC: Mel Torme
!!!BillboardChartDate: 1962/12/29
!!!BillboardPeak: 36
!!!BillboardWeeksOnChart: 11
!!!SampleTargetRank: 36
!!!SampleActualRank: 36
!!!SampleID#: 0213
!!!RDF**harmony: **recip + pitch class of root + harmonic quality
!!!RDF**harte: Chris Harte's syntax, used by MIREX
!!!RDF**phrase: newline = linebreak in original McGill transcription
!!!RDF**timestamp: McGill audio timestamp in seconds
!!!RDF**leadinstrument: original McGill primary instrumentation annotation
!!!RDT: 2017/01/12/
!!!ENC: Nathaniel Condit-Schultz
!!!EST: Awating manual error checking and editing.
